X:1
T:Visit anum virgo
T:Daniel Friderici
T:Source : Bicinia sacra---Rostock---J.Richelius---1642. Editor : André Vierendeels ( 11/07/17).
T:Notes : Original clefs : C1,C1 Editorial accidentals above the staff Original note values have been quartered in 3-beat measures  
T:Visit anum virgo
T:©
T:©
T:©
C:Daniel Friderici
Z:©
%%score [ 1 2 ]
L:1/8
Q:1/4=120
M:2/2
K:F
V:1 treble nm="Soprano 1" snm="S 1"
V:2 treble nm="Soprano 2" snm="S 2"
V:1
 F6 E2 | F2 G2 A2 G2 | A2 B2 c2 d2 | c2 B2 A2 GF | G8 | C4 F2 G2 | A2 B2 c2 B2 | A3 G AB c2- | %8
w: Vi- *|||||sit, vi- *|||
 c2 =BA B4 | c4 A4 | A2 G4 A2 | F4 G4 | z4 z2 C2 | FGAB c4 | z2 c2 FGAB | c2 c2 FGAB | c4 z2 c2 | %17
w: |sit, vi-|sit a- num|vir- go,|va-|tes, _ _ _ _|va- tes _ _ _|_ va- tes, _ _ _|_ ex-|
[M:6/4] d3 c Bc d2 d2 f2 | d3 c Bc d3 c Bc | d3 c Bc d2 d2 f2 | c3 B AB c2 c2 f2 | %21
w: ul- * * * * * *||* * * * * tat, ex-|ul- * * * * tat, ex-|
 c3 B AB c3 B AB | c3 B AB c2 c2 c2 | d3 d c2 B2 B2 A2 | d3 d c2 c3 B A2 |[M:2/2] G8 :: B6 AG | %27
w: ul- * * * * * * *|* * * * * tat, ex-|ul- tat in al- vo, ex-|ul- tat in al- * *|vo:|Clau- * *|
 A8 | G8 | A6 GF | G8 | F4 FGAF | G4 A4 | A2 AB c4 | F2 FG A4 | z8 |[M:6/4] B3 B A2 d3 d c2 | %37
w: |sus,|clau- * *|||* sus,|clau- sus ad huc,|clau- sus ad huc||Do- mi- num vi- det ad-|
 B2 A2 G2 F6 :| %38
w: es- se su- um.|
V:2
 z8 | F6 E2 | F2 G2 A2 G2 | A2 B2 c4- | c2 =BA B4 | c4 c4- | c2 B2 A2 G2 | F2 E2 D2 C2 | D8 | %9
w: |Vi- *||||sit, vi-||||
 C4 F4 | F2 E4 F2 | D4 C2 C2 | FGAB c4 | z4 z2 C2 | FGAB c2 c2 | FGAB c2 c2 | FGAB c2 A2 | %17
w: sit, vi-|sit a- num|vir- go, va-|tes, _ _ _ _|va-|tes, _ _ _ _ va-|tes, _ _ _ _ va-|tes, _ _ _ _ ex-|
[M:6/4] B3 c dc B2 B2 F2 | B3 c dc B3 c dc | B3 c dc B2 B2 F2 | A3 B cB A2 A2 F2 | %21
w: ul- * * * * * *||* * * * * tat, ex-|ul- * * * * * *|
 A3 B cB A3 B cB | A3 B cB A2 A2 F2 | B3 B A2 G2 G2 c2 | B3 B A2 FG AG F2 |[M:2/2] G8 :: z8 | %27
w: |* * * * * tat, ex-|ul- tat in al- vo, ex-|ul- tat in al- * * * *|vo:||
 F6 ED | E8 | D8 | E6 DC | D8 | C4 F4- | F2 FG A4 | A2 AB c4 | z8 |[M:6/4] d3 d c2 B3 B A2 | %37
w: Clau- * *||sus,|clau- * *||sus, clau-|* sus ad huc,|cla- sus ad- hic||Do- mi- num vi- det ad-|
 G2 F2 E2 F6 :| %38
w: es- se su- um.|

